Sources/FrostedUI/Resources/Icons.xcassets/wallet24.imageset/wallet-24.svg

<svg width="24" height="24" viewBox="0 0 24 24" fill="none" xmlns="http://www.w3.org/2000/svg" data-fui-icon="true">
  <path
    d="M17.499 4C18.8797 4 19.999 5.11929 19.999 6.5C19.999 6.53958 19.9952 6.57828 19.9893 6.61621C21.1228 6.95576 21.9492 8.00594 21.9492 9.25V17.25C21.9492 18.7688 20.718 20 19.1992 20H4.69922C3.18044 20 1.94922 18.7688 1.94922 17.25V6C1.94922 4.89543 2.84465 4 3.94922 4H17.499ZM3.44922 17.25C3.44922 17.9404 4.00885 18.5 4.69922 18.5H19.1992C19.8896 18.5 20.4492 17.9404 20.4492 17.25V9.25C20.4492 8.55964 19.8896 8.00001 19.1992 8H3.94922C3.77627 8 3.60928 7.97486 3.44922 7.93359V17.25ZM16.499 11.75C17.3274 11.75 17.999 12.4216 17.999 13.25C17.999 14.0784 17.3274 14.75 16.499 14.75C15.6707 14.7499 14.999 14.0783 14.999 13.25C14.999 12.4217 15.6707 11.7501 16.499 11.75ZM3.94922 5.5C3.67307 5.5 3.44922 5.72385 3.44922 6C3.44922 6.27615 3.67307 6.5 3.94922 6.5H18.499C18.499 5.94771 18.0513 5.5 17.499 5.5H3.94922Z"
    fill="currentColor"
  />
</svg>

<svg xmlns="http://www.w3.org/2000/svg" width="24" height="24" fill="none" data-fui-icon="true" viewBox="0 0 24 24"><path fill="currentColor" d="M17.499 4a2.5 2.5 0 0 1 2.5 2.5q0 .06-.01.116a2.75 2.75 0 0 1 1.96 2.634v8A2.75 2.75 0 0 1 19.2 20H4.7a2.75 2.75 0 0 1-2.75-2.75V6a2 2 0 0 1 2-2zM3.449 17.25c0 .69.56 1.25 1.25 1.25h14.5c.69 0 1.25-.56 1.25-1.25v-8c0-.69-.56-1.25-1.25-1.25H3.95c-.173 0-.34-.025-.5-.066zm13.05-5.5a1.5 1.5 0 1 1 0 3 1.5 1.5 0 0 1 0-3M3.949 5.5a.5.5 0 1 0 0 1H18.5a1 1 0 0 0-1-1z"/></svg>
